X:1
T:Adieu to Prince Edwards Isle
A:Walt Wermouth
B:Folksongs of the Catskills
C:Norman Cazden, Herbert Haufrecht & Norman Studer
L:1/8
M:4/4
N:Edited and Annotated, With a Study of Tune Formation and Relationships,
N:Folk Songs of the Catskills
N:by Norman Cazden, Herbert Haufrecht and Norman Studer
O:Catskills Mountain Region
Q:1/4=210
R:Reel
S:Catskill Mountains Region
Z:Jackie Fritts
K:G Major
D2|G3AB2D2|=FE3D2C2|B,2D2G3F|G6cc|
w:My name is Ed-ward O-le-an, as you shall un-der-stand, I was
(B2A2)B2c2|d2B2c2d2|G2GGF2E2|D6c|
w:born  - on Prince Ed-ward's Isle, that near to the o-cean stands. In
B2A2BBc2|dB3c2dd|G2GGF2E2|D6D2|
w:eight-een hun-dred and eight-y-one, in the flower of a bril-liant youth, I
G3AB2D2|=FE3D2C2|B,D3G3F|G6|]
w:left my na-tive coun-ter-ee, ny for-tune to pur-sue.